images/buildings/fenced-lot-left.svg

<?xml version="1.0" standalone="no"?><!DOCTYPE svg PUBLIC "-//W3C//DTD SVG 1.1//EN" "http://www.w3.org/Graphics/SVG/1.1/DTD/svg11.dtd"><svg width="96px" height="168px" version="1.1" xmlns="http://www.w3.org/2000/svg" xmlns:xlink="http://www.w3.org/1999/xlink" xml:space="preserve" style="fill-rule:evenodd;clip-rule:evenodd;stroke-linejoin:round;stroke-miterlimit:1.41421;"><g><g id="fenced-lot-left" transform="matrix(1.0002,0,0,1.0002,-5424.66,-695.671)"><g id="grass" transform="matrix(1,0,0,1,-0.643972,0)"><path d="M5481.37,853.109l13.805,-19.9l-2.617,-4.575l-12.825,23.163l1.637,1.312Z" style="fill:#689d46;fill-rule:nonzero;"/><path d="M5460.73,825.534l-0.375,5.718l-8.125,-7.678l-6.497,16.451l-4.91,13.914l-4.582,0.191l14.989,-35.13l9.5,6.534Z" style="fill:#8abc6b;fill-rule:nonzero;"/><path d="M5434.57,851.107l5.673,-39.104l-7.42,20.822" style="fill:#689d46;fill-rule:nonzero;"/><path d="M5434.01,846.211l-9.667,0.198l0,9.84l90.5,2.044l-0.334,-13.311l-18.5,-1.842l-11.332,-1.229l-8.834,4.709l-7.001,-1.024l-16.665,-3.071l-8,-1.024l-10.167,4.71Z" style="fill:#8abc6b;fill-rule:nonzero;"/><path d="M5484.79,853.838l2.783,-43.166l-5.892,6.417l0.491,13.416l2.618,23.333Z" style="fill:#689d46;fill-rule:nonzero;"/><path d="M5474.44,809.796l-2.128,3.938l3.601,16.041l5.564,12.396l4.91,10.646l4.582,0.145l-8.509,-17.937l-8.02,-25.229Z" style="fill:#8abc6b;fill-rule:nonzero;"/><path d="M5432.41,855.006l-1.943,-23.131l-5,-4.5l0.75,-5.75l6.875,7.875l2.5,20.5l-3.182,5.006Z" style="fill:#689d46;fill-rule:nonzero;"/><path d="M5505.29,847.664l-6.117,-20.507l0.074,-2.211l5.076,7.016l0.967,15.702Z" style="fill:#8abc6b;fill-rule:nonzero;"/><path d="M5516.74,858.741l0.366,-8.456l-5.985,-1.363l-3.299,2.182l-1.223,-3.274l-3.787,0.819l-1.221,-3.274l-7.056,2.663l-1.465,0.273l-13.958,-2.936c0,0 -8.427,6.417 -9.038,6.69c-0.611,0.273 -20.769,-3.273 -20.769,-3.273l-4.031,-3.417l-9.159,4.235l-13.092,2.077l1.363,6.237l92.354,0.817Z" style="fill:#689d46;fill-rule:nonzero;"/><path d="M5505.33,848.606l5.674,-39.104l-7.42,20.822" style="fill:#689d46;fill-rule:nonzero;"/></g><g id="ground" transform="matrix(1,0,0,1,-0.643972,0)"><path d="M5520.3,856.833l0.007,6.667l-96.47,0l0.025,-7.214l96.438,0.547Z" style="fill:#7d715c;fill-rule:nonzero;"/><path d="M5513.29,863.363l-63.318,-6.803l-26.201,6.94l89.519,-0.137Z" style="fill:#998b75;fill-rule:nonzero;"/></g><g id="fence" transform="matrix(1,0,0,1,-0.643972,0)"><clipPath id="tag1"><rect x="5424.34" y="706" width="95.75" height="157.5"/></clipPath><g clip-path="url(#tag1)"><g transform="matrix(1,0,0,1,5424.34,671.5)"><g transform="matrix(1,0,0,1,-5424.34,-671.5)"><path d="M5438.21,862.219l0.174,2.673l69.088,68.724l3.288,0.556l-72.55,-71.953Z" style="fill:#e7e6de;fill-rule:nonzero;"/></g><g transform="matrix(1,0,0,1,-5424.34,-671.5)"><path d="M5521.62,828.878l-0.202,2.674l-69.788,69.43l-3.295,0.588l73.285,-72.692Z" style="fill:#c2bfbc;fill-rule:nonzero;"/></g><g transform="matrix(1,0,0,1,-5424.34,-671.5)"><path d="M5520.51,863.646l-5.946,0l-0.173,-78.767l6.119,78.767Z" style="fill:#e7e6de;fill-rule:nonzero;"/></g><g transform="matrix(1,0,0,1,-5424.34,-671.5)"><path d="M5514.4,801.861l-0.089,-59.052l6.426,-3.668l-0.218,124.505l-6.119,-61.785Z" style="fill:#e7e6de;fill-rule:nonzero;"/></g><g transform="matrix(1,0,0,1,-5424.34,-671.5)"><path d="M5433.02,720.681l0.447,2.945l82.406,82.044l3.661,0.925l-86.514,-85.914Z" style="fill:#e7e6de;fill-rule:nonzero;"/></g><g transform="matrix(1,0,0,1,-5424.34,-671.5)"><path d="M5434.64,690.551l0.42,2.918l80.968,80.603l3.621,0.892l-85.009,-84.413Z" style="fill:#e7e6de;fill-rule:nonzero;"/></g><g transform="matrix(1,0,0,1,-5424.34,-671.5)"><path d="M5426.46,650.625l0.584,3.076l88.875,88.518l3.843,1.107l-93.302,-92.701Z" style="fill:#e7e6de;fill-rule:nonzero;"/></g><g transform="matrix(1,0,0,1,-5424.34,-671.5)"><path d="M5447.69,638.163l0.174,2.846l72.337,80.663l3.455,0.968l-75.966,-84.477Z" style="fill:#e7e6de;fill-rule:nonzero;"/></g><g transform="matrix(1,0,0,1,-5424.34,-671.5)"><path d="M5383.09,703.505l1.433,3.928l129.908,129.547l4.987,2.254l-136.328,-135.729Z" style="fill:#e7e6de;fill-rule:nonzero;"/></g><g transform="matrix(1,0,0,1,-5424.34,-671.5)"><path d="M5366.08,718.241l1.765,4.262l146.024,145.665l5.435,2.698l-153.224,-152.625Z" style="fill:#e7e6de;fill-rule:nonzero;"/></g><g transform="matrix(1,0,0,1,-5424.34,-671.5)"><path d="M5396.7,780.616l1.16,3.654l116.709,116.347l4.619,1.887l-122.488,-121.888Z" style="fill:#e7e6de;fill-rule:nonzero;"/></g><g transform="matrix(1,0,0,1,-5424.34,-671.5)"><path d="M5388.79,810.789l1.187,3.688l118.135,117.771l4.659,1.924l-123.981,-123.383Z" style="fill:#e7e6de;fill-rule:nonzero;"/></g><g transform="matrix(1,0,0,1,-5424.34,-671.5)"><path d="M5521.85,766.608l-1.066,3.538l-111.589,111.231l-4.462,1.755l117.117,-116.524Z" style="fill:#c2bfbc;fill-rule:nonzero;"/></g><g transform="matrix(1,0,0,1,-5424.34,-671.5)"><path d="M5519.69,736.762l-1.288,3.759l-122.28,121.924l-4.762,2.056l128.33,-127.739Z" style="fill:#c2bfbc;fill-rule:nonzero;"/></g><g transform="matrix(1,0,0,1,-5424.34,-671.5)"><path d="M5533.51,691.419l-1.247,3.713l-120.14,119.787l-4.699,1.993l126.086,-125.493Z" style="fill:#c2bfbc;fill-rule:nonzero;"/></g><g transform="matrix(1,0,0,1,-5424.34,-671.5)"><path d="M5522.19,671.216l-1.426,3.897l-129.017,128.661l-4.95,2.242l135.393,-134.8Z" style="fill:#c2bfbc;fill-rule:nonzero;"/></g><g transform="matrix(1,0,0,1,-5424.34,-671.5)"><path d="M5522.31,639.583l-0.883,3.354l-102.726,102.369l-4.215,1.509l107.824,-107.232Z" style="fill:#c2bfbc;fill-rule:nonzero;"/></g><g transform="matrix(1,0,0,1,-5424.34,-671.5)"><path d="M5521.73,798.243l-0.201,2.674l-69.787,69.43l-3.297,0.588l73.285,-72.692Z" style="fill:#c2bfbc;fill-rule:nonzero;"/></g><g transform="matrix(1,0,0,1,-5424.34,-671.5)"><path d="M5523.51,862.928l-0.202,2.674l-69.786,69.43l-3.297,0.589l73.285,-72.693Z" style="fill:#c2bfbc;fill-rule:nonzero;"/></g><g transform="matrix(1,0,0,1,-5424.34,-671.5)"><path d="M5520.51,863.961l-5.946,0l-0.173,-79.081l6.119,79.081Z" style="fill:#e7e6de;fill-rule:nonzero;"/></g><g transform="matrix(1,0,0,1,-5424.34,-671.5)"><path d="M5514.4,792.544l-0.089,-67.957l6.426,-4.221l-0.218,143.281l-6.119,-71.103Z" style="fill:#e7e6de;fill-rule:nonzero;"/></g><g transform="matrix(1,0,0,1,-5424.34,-671.5)"><path d="M5467.88,726.315l-50.242,0.088l-3.119,-6.388l105.925,0.217l-52.564,6.083Z" style="fill:#e7e6de;fill-rule:nonzero;"/></g><g transform="matrix(1,0,0,1,-5424.34,-671.5)"><path d="M5520.44,720.352l0,5.91l-105.662,-0.329l105.662,-5.581Z" style="fill:#c2bfbc;fill-rule:nonzero;"/></g></g></g></g></g></g></svg>

<?xml version="1.0" encoding="UTF-8" standalone="no"?>
<!DOCTYPE svg PUBLIC "-//W3C//DTD SVG 1.1//EN" "http://www.w3.org/Graphics/SVG/1.1/DTD/svg11.dtd">
<svg width="100%" height="100%" viewBox="0 0 96 192" version="1.1" xmlns="http://www.w3.org/2000/svg" xmlns:xlink="http://www.w3.org/1999/xlink" xml:space="preserve" style="fill-rule:evenodd;clip-rule:evenodd;stroke-linejoin:round;stroke-miterlimit:1.41421;">
    <g id="fenced-lot-left" transform="matrix(1.0002,0,0,1.0002,-5424.66,-691.671)">
        <g id="grass" transform="matrix(1,0,0,1,-0.643972,0)">
            <path d="M5481.37,853.109L5495.17,833.209L5492.56,828.634L5479.73,851.797L5481.37,853.109Z" style="fill:rgb(102,156,70);fill-rule:nonzero;"/>
            <path d="M5460.73,825.534L5460.35,831.252L5452.23,823.574L5445.73,840.025L5440.82,853.939L5436.24,854.13L5451.23,819L5460.73,825.534Z" style="fill:rgb(137,187,107);fill-rule:nonzero;"/>
            <path d="M5434.57,851.107L5440.24,812.003L5432.82,832.825" style="fill:rgb(102,156,70);fill-rule:nonzero;"/>
            <path d="M5434.01,846.211L5424.34,846.409L5424.34,856.249L5514.84,858.293L5514.51,844.982L5496.01,843.14L5484.67,841.911L5475.84,846.62L5468.84,845.596L5452.17,842.525L5444.17,841.501L5434.01,846.211Z" style="fill:rgb(137,187,107);fill-rule:nonzero;"/>
            <path d="M5484.79,853.838L5487.57,810.672L5481.68,817.089L5482.17,830.505L5484.79,853.838Z" style="fill:rgb(102,156,70);fill-rule:nonzero;"/>
            <path d="M5474.44,809.796L5472.31,813.734L5475.91,829.775L5481.48,842.171L5486.39,852.817L5490.97,852.962L5482.46,835.025L5474.44,809.796Z" style="fill:rgb(137,187,107);fill-rule:nonzero;"/>
            <path d="M5432.41,855.006L5430.47,831.875L5425.47,827.375L5426.22,821.625L5433.09,829.5L5435.59,850L5432.41,855.006Z" style="fill:rgb(102,156,70);fill-rule:nonzero;"/>
            <path d="M5505.29,847.664L5499.17,827.157L5499.24,824.946L5504.32,831.962L5505.29,847.664Z" style="fill:rgb(137,187,107);fill-rule:nonzero;"/>
            <path d="M5516.74,858.741L5517.11,850.285L5511.12,848.922L5507.83,851.104L5506.6,847.83L5502.82,848.649L5501.6,845.375L5494.54,848.038L5493.07,848.311L5479.12,845.375C5479.12,845.375 5470.69,851.792 5470.08,852.065C5469.47,852.338 5449.31,848.792 5449.31,848.792L5445.28,845.375L5436.12,849.61L5423.03,851.687L5424.39,857.924L5516.74,858.741Z" style="fill:rgb(102,156,70);fill-rule:nonzero;"/>
            <path d="M5505.33,848.606L5511.01,809.502L5503.59,830.324" style="fill:rgb(102,156,70);fill-rule:nonzero;"/>
        </g>
        <g id="ground" transform="matrix(1,0,0,1,-0.643972,0)">
            <path d="M5520.3,856.833L5520.31,863.5L5423.84,863.5L5423.86,856.286L5520.3,856.833Z" style="fill:rgb(124,113,91);fill-rule:nonzero;"/>
            <path d="M5513.29,863.363L5449.97,856.56L5423.77,863.5L5513.29,863.363Z" style="fill:rgb(151,138,117);fill-rule:nonzero;"/>
        </g>
        <g id="fence" transform="matrix(1,0,0,1,-0.643972,0)">
            <clipPath id="_clip1">
                <rect x="5424.34" y="706" width="95.75" height="157.5"/>
            </clipPath>
            <g clip-path="url(#_clip1)">
                <g transform="matrix(1,0,0,1,5424.34,671.5)">
                    <g transform="matrix(1,0,0,1,-5424.34,-671.5)">
                        <path d="M5438.21,862.219L5438.39,864.892L5507.48,933.616L5510.76,934.172L5438.21,862.219Z" style="fill:rgb(230,229,222);fill-rule:nonzero;"/>
                    </g>
                    <g transform="matrix(1,0,0,1,-5424.34,-671.5)">
                        <path d="M5521.62,828.878L5521.42,831.552L5451.63,900.982L5448.33,901.57L5521.62,828.878Z" style="fill:rgb(194,191,188);fill-rule:nonzero;"/>
                    </g>
                    <g transform="matrix(1,0,0,1,-5424.34,-671.5)">
                        <path d="M5520.52,863.647L5514.57,863.647L5514.4,784.879L5520.52,863.647Z" style="fill:rgb(230,229,222);fill-rule:nonzero;"/>
                    </g>
                    <g transform="matrix(1,0,0,1,-5424.34,-671.5)">
                        <path d="M5514.4,801.861L5514.31,742.809L5520.73,739.141L5520.52,863.646L5514.4,801.861Z" style="fill:rgb(230,229,222);fill-rule:nonzero;"/>
                    </g>
                    <g transform="matrix(1,0,0,1,-5424.34,-671.5)">
                        <path d="M5433.02,720.681L5433.47,723.626L5515.88,805.67L5519.54,806.595L5433.02,720.681Z" style="fill:rgb(230,229,222);fill-rule:nonzero;"/>
                    </g>
                    <g transform="matrix(1,0,0,1,-5424.34,-671.5)">
                        <path d="M5434.64,690.551L5435.06,693.469L5516.03,774.072L5519.65,774.964L5434.64,690.551Z" style="fill:rgb(230,229,222);fill-rule:nonzero;"/>
                    </g>
                    <g transform="matrix(1,0,0,1,-5424.34,-671.5)">
                        <path d="M5426.46,650.625L5427.05,653.701L5515.92,742.219L5519.77,743.326L5426.46,650.625Z" style="fill:rgb(230,229,222);fill-rule:nonzero;"/>
                    </g>
                    <g transform="matrix(1,0,0,1,-5424.34,-671.5)">
                        <path d="M5447.69,638.163L5447.86,641.009L5520.2,721.672L5523.66,722.64L5447.69,638.163Z" style="fill:rgb(230,229,222);fill-rule:nonzero;"/>
                    </g>
                    <g transform="matrix(1,0,0,1,-5424.34,-671.5)">
                        <path d="M5383.09,703.505L5384.53,707.433L5514.43,836.98L5519.42,839.234L5383.09,703.505Z" style="fill:rgb(230,229,222);fill-rule:nonzero;"/>
                    </g>
                    <g transform="matrix(1,0,0,1,-5424.34,-671.5)">
                        <path d="M5366.08,718.241L5367.85,722.503L5513.87,868.168L5519.31,870.866L5366.08,718.241Z" style="fill:rgb(230,229,222);fill-rule:nonzero;"/>
                    </g>
                    <g transform="matrix(1,0,0,1,-5424.34,-671.5)">
                        <path d="M5396.7,780.616L5397.86,784.27L5514.57,900.617L5519.19,902.504L5396.7,780.616Z" style="fill:rgb(230,229,222);fill-rule:nonzero;"/>
                    </g>
                    <g transform="matrix(1,0,0,1,-5424.34,-671.5)">
                        <path d="M5388.78,810.789L5389.97,814.477L5508.11,932.248L5512.77,934.172L5388.78,810.789Z" style="fill:rgb(230,229,222);fill-rule:nonzero;"/>
                    </g>
                    <g transform="matrix(1,0,0,1,-5424.34,-671.5)">
                        <path d="M5521.85,766.608L5520.78,770.146L5409.19,881.377L5404.73,883.132L5521.85,766.608Z" style="fill:rgb(194,191,188);fill-rule:nonzero;"/>
                    </g>
                    <g transform="matrix(1,0,0,1,-5424.34,-671.5)">
                        <path d="M5519.69,736.762L5518.4,740.521L5396.12,862.445L5391.36,864.501L5519.69,736.762Z" style="fill:rgb(194,191,188);fill-rule:nonzero;"/>
                    </g>
                    <g transform="matrix(1,0,0,1,-5424.34,-671.5)">
                        <path d="M5533.51,691.419L5532.27,695.132L5412.12,814.919L5407.43,816.912L5533.51,691.419Z" style="fill:rgb(194,191,188);fill-rule:nonzero;"/>
                    </g>
                    <g transform="matrix(1,0,0,1,-5424.34,-671.5)">
                        <path d="M5522.19,671.216L5520.77,675.113L5391.75,803.774L5386.8,806.016L5522.19,671.216Z" style="fill:rgb(194,191,188);fill-rule:nonzero;"/>
                    </g>
                    <g transform="matrix(1,0,0,1,-5424.34,-671.5)">
                        <path d="M5522.31,639.583L5521.42,642.937L5418.7,745.306L5414.48,746.815L5522.31,639.583Z" style="fill:rgb(194,191,188);fill-rule:nonzero;"/>
                    </g>
                    <g transform="matrix(1,0,0,1,-5424.34,-671.5)">
                        <path d="M5521.73,798.243L5521.53,800.917L5451.74,870.347L5448.45,870.935L5521.73,798.243Z" style="fill:rgb(194,191,188);fill-rule:nonzero;"/>
                    </g>
                    <g transform="matrix(1,0,0,1,-5424.34,-671.5)">
                        <path d="M5523.51,862.928L5523.31,865.602L5453.53,935.032L5450.23,935.621L5523.51,862.928Z" style="fill:rgb(194,191,188);fill-rule:nonzero;"/>
                    </g>
                    <g transform="matrix(1,0,0,1,-5424.34,-671.5)">
                        <path d="M5520.52,863.961L5514.57,863.961L5514.4,784.88L5520.52,863.961Z" style="fill:rgb(230,229,222);fill-rule:nonzero;"/>
                    </g>
                    <g transform="matrix(1,0,0,1,-5424.34,-671.5)">
                        <path d="M5514.4,792.544L5514.31,724.587L5520.73,720.366L5520.52,863.647L5514.4,792.544Z" style="fill:rgb(230,229,222);fill-rule:nonzero;"/>
                    </g>
                    <g transform="matrix(1,0,0,1,-5424.34,-671.5)">
                        <path d="M5467.88,726.315L5417.63,726.403L5414.51,720.015L5520.44,720.232L5467.88,726.315Z" style="fill:rgb(230,229,222);fill-rule:nonzero;"/>
                    </g>
                    <g transform="matrix(1,0,0,1,-5424.34,-671.5)">
                        <path d="M5520.44,720.353L5520.44,726.262L5414.78,725.934L5520.44,720.353Z" style="fill:rgb(194,191,188);fill-rule:nonzero;"/>
                    </g>
                </g>
            </g>
        </g>
        <g id="dirt" transform="matrix(0.983014,-8.15763e-18,-8.29694e-18,1.03368,5425.19,689.541)">
            <rect x="-1.639" y="168.292" width="97.639" height="19.345" style="fill:rgb(53,45,38);"/>
        </g>
    </g>
</svg>
